svgs/light/code-compare.svg

<svg xmlns="http://www.w3.org/2000/svg" viewBox="0 0 512 512"><!--! Font Awesome Pro 6.4.2 by @fontawesome - https://fontawesome.com License - https://fontawesome.com/license (Commercial License) Copyright 2023 Fonticons, Inc. --><path d="M322.8 484.2c6.5 5.9 7 16.1 1.1 22.6s-16.1 7-22.6 1.1l-88-80c-3.3-3-5.2-7.3-5.2-11.8s1.9-8.8 5.2-11.8l88-80c6.5-5.9 16.7-5.5 22.6 1.1s5.5 16.7-1.1 22.6L265.4 400H336c44.2 0 80-35.8 80-80V158.4c-36.5-7.4-64-39.7-64-78.4c0-44.2 35.8-80 80-80s80 35.8 80 80c0 38.7-27.5 71-64 78.4V320c0 61.9-50.1 112-112 112H265.4l57.4 52.2zM384 80a48 48 0 1 0 96 0 48 48 0 1 0 -96 0zM189.2 27.8c-6.5-5.9-7-16.1-1.1-22.6s16.1-7 22.6-1.1l88 80c3.3 3 5.2 7.3 5.2 11.8s-1.9 8.8-5.2 11.8l-88 80c-6.5 5.9-16.7 5.5-22.6-1.1s-5.5-16.7 1.1-22.6L246.6 112H176c-44.2 0-80 35.8-80 80V353.6c36.5 7.4 64 39.7 64 78.4c0 44.2-35.8 80-80 80s-80-35.8-80-80c0-38.7 27.5-71 64-78.4V192c0-61.9 50.1-112 112-112h70.6L189.2 27.8zM128 432a48 48 0 1 0 -96 0 48 48 0 1 0 96 0z"/></svg>

<svg xmlns="http://www.w3.org/2000/svg" viewBox="0 0 512 512"><!--! Font Awesome Pro 6.1.1 by @fontawesome - https://fontawesome.com License - https://fontawesome.com/license (Commercial License) Copyright 2022 Fonticons, Inc. --><path d="M322.8 484.2C329.3 490.1 329.8 500.2 323.8 506.8C317.9 513.3 307.8 513.8 301.2 507.8L213.2 427.8C209.9 424.8 208 420.5 208 416C208 411.5 209.9 407.2 213.2 404.2L301.2 324.2C307.8 318.2 317.9 318.7 323.8 325.2C329.8 331.8 329.3 341.9 322.8 347.8L265.4 400H336C380.2 400 416 364.2 416 320V158.4C379.5 150.1 352 118.7 352 80C352 35.82 387.8 0 432 0C476.2 0 512 35.82 512 80C512 118.7 484.5 150.1 448 158.4V320C448 381.9 397.9 432 336 432H265.4L322.8 484.2zM384 80C384 106.5 405.5 128 432 128C458.5 128 480 106.5 480 80C480 53.49 458.5 32 432 32C405.5 32 384 53.49 384 80zM189.2 27.84C182.7 21.9 182.2 11.78 188.2 5.237C194.1-1.301 204.2-1.783 210.8 4.161L298.8 84.16C302.1 87.19 304 91.49 304 96C304 100.5 302.1 104.8 298.8 107.8L210.8 187.8C204.2 193.8 194.1 193.3 188.2 186.8C182.2 180.2 182.7 170.1 189.2 164.2L246.6 112H176C131.8 112 96 147.8 96 192V353.6C132.5 361 160 393.3 160 432C160 476.2 124.2 512 80 512C35.82 512 0 476.2 0 432C0 393.3 27.48 361 64 353.6V192C64 130.1 114.1 80 176 80H246.6L189.2 27.84zM128 432C128 405.5 106.5 384 80 384C53.49 384 32 405.5 32 432C32 458.5 53.49 480 80 480C106.5 480 128 458.5 128 432z"/></svg>
